03_DEV/FRONT/public/assets/images/logo.svg

<svg height="37" viewBox="0 0 210 37" width="210" xmlns="http://www.w3.org/2000/svg" xmlns:xlink="http://www.w3.org/1999/xlink"><mask id="a" fill="#fff"><path d="m0-.00045272h32.9902132v32.88547012h-32.9902132z" fill="#fff" fill-rule="evenodd"/></mask><mask id="b" fill="#fff"><path d="m0 36.9513944h209.943884v-36.9513944h-209.943884z" fill="#fff" fill-rule="evenodd"/></mask><g fill="#fff" fill-rule="evenodd"><path d="m10.7992243 25.0785512c3.6641222 2.3955471 7.4356869 4.0179512 10.6081821 4.6303485-4.0865061 1.4999477-8.8030105 1.1326933-12.72056305-1.4311882-3.90220365-2.5561777-6.11452566-6.7196969-6.36795597-11.0438467 1.8358695 2.6557526 4.83167894 5.4492544 8.48033692 7.8446864m-6.57533957-15.74295468c1.22895238 3.32161668 4.85464463 7.28598608 9.95521827 10.62289548 4.8394111 3.1684599 9.6864389 4.9058467 13.1968412 4.9058467.1920346 0 .3611035-.0229965.545406-.0307004-.7758707 1.0485262-1.666916 1.9593032-2.6501702 2.732331-.3225581.0687596-.6759296.1147527-1.0599988.1147527-3.0880184.0765783-7.7506284-1.6531046-12.1368424-4.5307736-4.3860986-2.8699651-7.82737298-6.4364947-8.99504508-9.3141637-.14598786-.3443729-.23808139-.673568-.30720924-1.0026481.30720924-1.201568.79883636-2.3725505 1.45180025-3.49754008m1.85883519-2.50271081c.58383605-.63516376 1.22145103-1.20156794 1.8973806-1.69898257 1.53627703 3.17616376 5.05452678 6.75787106 9.57114898 9.71211846 4.5244697 2.9618362 9.2332419 4.7373972 12.7513763 4.8828502-.1996514.8189059-.4686615 1.630108-.8219175 2.4184285-2.0509852 1.1479861-7.8197562-.0381742-14.0418397-4.1098223-6.21435137-4.0715331-9.60196223-8.87033096-9.35614868-11.20459229m6.99795418-4.1098223c1.8972652 2.44142509 4.6472611 4.90584669 7.8504541 7.00289896 3.203193 2.09693733 6.560106 3.62758533 9.5635322 4.39302443.1843024 1.102108.2458135 2.2193937.1689535 3.3367944-3.0649373-.0305854-7.5739426-1.7372718-11.8448666-4.5307735-4.232494-2.7705053-7.5816749-6.18387808-8.87213833-9.03096171.99860313-.52052613 2.05098523-.90318815 3.13406513-1.17098258m11.2149839 1.88272474c2.6348212 1.72209408 4.4936564 4.1864007 5.5076085 6.92632055-2.4273223-.7807317-5.0697604-2.05876306-7.6123727-3.72727525-2.5502291-1.66828223-4.7779-3.56641463-6.4601649-5.47972474 2.9344138-.16074564 5.9302232.55870035 8.5649291 2.28067944m-20.8553761 21.88865855c1.09081208 1.4083066 2.41208879 2.6710453 3.98679582 3.6965749 2.78831048 1.821554 5.93010778 2.6940418 9.04109188 2.6940418 3.5412154 0 7.0362688-1.1403972 9.9169036-3.2833275.0613957-.0382892.1151746-.0765784.1689535-.1225714 1.4287192-1.0867004 2.696217-2.4260175 3.7409823-4.0102474 1.3442424-2.0434704 2.1584277-4.2782718 2.5040669-6.5436586.0461622-.1377491.0691279-.2907909.0615111-.4515365.2304646-1.8292579.1536046-3.6812823-.2304646-5.4645471-.0153489-.0841672-.0306979-.1606306-.0615111-.237209-.914011-3.99506973-3.3106355-7.66876311-7.0131877-10.08719168-3.7024369-2.42601743-8.034872-3.15316725-12.0829481-2.40313589-.07686.00758885-.15372.01540766-.2228478.0382892-1.7974395.3596655-3.53348336 1.02552961-5.13115607 1.96689198-.14598787.05358188-.27662681.1300453-.39191683.22962021-1.26738238.78832056-2.44267123 1.76785714-3.47958898 2.90825436-.07686001.06887456-.15372003.14545296-.20749896.22962021-.47627819.55099651-.93709205 1.12510453-1.35197455 1.74497561-1.02156883 1.55364459-1.72831166 3.214338-2.1737766 4.9211394-.05377893.1300453-.09220893.2677944-.0999411.4132474-1.06773099 4.6685226-.04604676 9.5972508 2.79615806 13.4545714.06139568.1071637.1382557.2144425.23034923.3061986" mask="url(#a)" transform="translate(0 4)"/><path d="m54.714881 36.5880475c-2.2393058 0-4.1021157-.6549689-5.5888926-1.9667453-1.487471-1.3105124-2.2305124-3.1936056-2.2305124-5.6498541v-13.5896863h-6.3156198v-3.9324565h6.3156198v-7.06872362h4.310843v7.06872362h7.7690744v3.9324565h-7.7690744v13.0420404c0 2.8870341 1.3359008 4.3312981 4.0096694 4.3312981 1.3357852 0 2.5390909-.3154192 3.608529-.945913l1.3032727 3.6336987c-1.4705785.7636708-3.274843 1.1451615-5.4129091 1.1451615"/><path d="m62.7845041 36.3389295v-24.8896242h4.310843v3.6836832c.5009917-1.0616242 1.3943306-1.9826025 2.6812893-2.7628199 1.2861487-.779413 2.6479669-1.1696366 4.0851074-1.1696366.7341322 0 1.4697686.0829627 2.2052893.2487733l-.5512067 4.280854c-.6017685-.1991335-1.3202809-.2986428-2.1550743-.2986428-1.3372893 0-2.5991405.4232018-3.7847438 1.2696055-1.1862976.8460591-2.013686 2.0161553-2.4806612 3.5092547v16.1285528z"/><path d="m88.8982992 32.9042953c3.508562 0 6.1151074-1.3766987 7.8194049-4.1320496v-9.806264c-1.7042975-2.7208789-4.3108429-4.0820652-7.8194049-4.0820652-2.4732562 0-4.5106612.8713385-6.1152232 2.6135559-1.6036363 1.7423323-2.4058016 3.8748882-2.4058016 6.3966335 0 2.5224348.8021653 4.654646 2.4058016 6.3966335 1.604562 1.7425622 3.641967 2.6135559 6.1152232 2.6135559m-.3508099 3.9322267c-3.6758678 0-6.6998678-1.251795-9.0723472-3.7580279-2.372595-2.5055435-3.558314-5.5668913-3.558314-9.1843882 0-3.6169224 1.185719-6.6781553 3.558314-9.1843882 2.3724794-2.5053137 5.3964794-3.7583727 9.0723472-3.7583727 3.4413388 0 6.165438 1.0789752 8.1702148 3.2357764v-2.7378851h4.3101489v24.8897392h-4.3101489v-2.738c-2.0047768 2.1579503-4.728876 3.2355465-8.1702148 3.2355465"/><path d="m114.962307 36.3389295-11.578809-24.8896242h4.811834l8.571356 18.866323 8.570545-18.866323h4.81195l-11.578347 24.8896242z"/><path d="m134.659856 21.255845h15.888959c-.33438-1.9911056-1.211405-3.5756708-2.631537-4.7539254-1.420133-1.1774503-3.099438-1.7672671-5.036876-1.7672671-1.972265 0-3.734414.5898168-5.288414 1.7672671-1.553421 1.1782546-2.530991 2.7628198-2.932132 4.7539254m8.320397 15.580677c-3.843058 0-6.966909-1.2275496-9.372827-3.6837981-2.405917-2.4548696-3.608528-5.5417267-3.608528-9.258618 0-3.6837981 1.218925-6.7615776 3.658859-9.2340279 2.438545-2.4717609 5.563785-3.708733 9.372826-3.708733 3.374695 0 6.206166 1.1201118 8.495802 3.3603354 2.288479 2.2399938 3.43324 5.2850249 3.43324 9.1345187 0 .4975466-.017008.9292515-.050215 1.2941956h-20.550149c.06676 2.3229565.910463 4.2647671 2.531108 5.8243975 1.620644 1.5596305 3.667074 2.3395031 6.140214 2.3395031 3.508678 0 6.115108-1.4434596 7.818827-4.3311832l3.408711 2.3400777c-2.439934 3.9498074-6.198761 5.9233322-11.277868 5.9233322"/><path d="m159.069967 36.338941h4.310843v-36.33882609h-4.310843z" mask="url(#b)"/><path d="m172.251187 21.255845h15.889074c-.334496-1.9911056-1.211521-3.5756708-2.631653-4.7539254-1.420132-1.1774503-3.099322-1.7672671-5.036876-1.7672671-1.972149 0-3.734413.5898168-5.288413 1.7672671-1.553421 1.1782546-2.530992 2.7628198-2.932132 4.7539254m8.320396 15.580677c-3.843057 0-6.966909-1.2275496-9.372826-3.6837981-2.405917-2.4548696-3.608529-5.5417267-3.608529-9.258618 0-3.6837981 1.218926-6.7615776 3.65886-9.2340279 2.438545-2.4717609 5.563785-3.708733 9.372942-3.708733 3.374694 0 6.206049 1.1201118 8.495801 3.3603354 2.288364 2.2399938 3.433124 5.2850249 3.433124 9.1345187 0 .4975466-.016892.9292515-.050215 1.2941956h-20.550033c.066645 2.3229565.910348 4.2647671 2.530992 5.8243975 1.620761 1.5596305 3.667075 2.3395031 6.140331 2.3395031 3.508562 0 6.114991-1.4434596 7.81871-4.3311832l3.408711 2.3400777c-2.439934 3.9498074-6.19876 5.9233322-11.277868 5.9233322" mask="url(#b)"/><path d="m196.661251 36.3389295v-24.8896242h4.310843v3.6836832c.500992-1.0616242 1.394331-1.9826025 2.681289-2.7628199 1.286265-.779413 2.647852-1.1696366 4.084992-1.1696366.734248 0 1.469885.0829627 2.205521.2487733l-.551438 4.280854c-.601653-.1991335-1.320165-.2986428-2.155075-.2986428-1.337173 0-2.599024.4232018-3.784628 1.2696055-1.186297.8460591-2.013686 2.0161553-2.480661 3.5092547v16.1285528z" mask="url(#b)"/></g></svg>

<?xml version="1.0" encoding="UTF-8"?>
<svg width="210px" height="37px" viewBox="0 0 210 37" version="1.1" xmlns="http://www.w3.org/2000/svg" xmlns:xlink="http://www.w3.org/1999/xlink">
    <title>Logo</title>
    <defs>
        <polygon id="path-1" points="0 -0.00045272266 32.9902132 -0.00045272266 32.9902132 32.8850174 0 32.8850174"></polygon>
        <polygon id="path-3" points="0 36.9513944 209.943884 36.9513944 209.943884 0 0 0"></polygon>
    </defs>
    <g id="Logo" stroke="none" stroke-width="1" fill="none" fill-rule="evenodd">
        <g id="Group-18">
            <g id="Group-3" transform="translate(0.000000, 4.000000)">
                <mask id="mask-2" fill="white">
                    <use xlink:href="#path-1"></use>
                </mask>
                <g id="Clip-2"></g>
                <path d="M10.7992243,25.0785512 C14.4633465,27.4740983 18.2349112,29.0965024 21.4074064,29.7088997 C17.3209003,31.2088474 12.6043959,30.841593 8.68684335,28.2777115 C4.7846397,25.7215338 2.57231769,21.5580146 2.31888738,17.2338648 C4.15475688,19.8896174 7.15056632,22.6831192 10.7992243,25.0785512 M4.22388473,9.33559652 C5.45283711,12.6572132 9.07852936,16.6215826 14.179103,19.958492 C19.0185141,23.1269519 23.8655419,24.8643387 27.3759442,24.8643387 C27.5679788,24.8643387 27.7370477,24.8413422 27.9213502,24.8336383 C27.1454795,25.8821645 26.2544342,26.7929415 25.27118,27.5659693 C24.9486219,27.6347289 24.5952504,27.680722 24.2111812,27.680722 C21.1231628,27.7573003 16.4605528,26.0276174 12.0743388,23.1499484 C7.6882402,20.2799833 4.24696582,16.7134537 3.07929372,13.8357847 C2.93330586,13.4914118 2.84121233,13.1622167 2.77208448,12.8331366 C3.07929372,11.6315686 3.57092084,10.4605861 4.22388473,9.33559652 M6.08271992,6.83288571 C6.66655597,6.19772195 7.30417095,5.63131777 7.98010052,5.13390314 C9.51637755,8.3100669 13.0346273,11.8917742 17.5512495,14.8460216 C22.0757192,17.8078578 26.7844914,19.5834188 30.3026258,19.7288718 C30.1029744,20.5477777 29.8339643,21.3589798 29.4807083,22.1473003 C27.4297231,23.2952864 21.6609521,22.1091261 15.4388686,18.037478 C9.22451723,13.9659449 5.83690637,9.16714704 6.08271992,6.83288571 M13.0806741,2.72306341 C14.9779393,5.1644885 17.7279352,7.6289101 20.9311282,9.72596237 C24.1343212,11.8228997 27.4912342,13.3535477 30.4946604,14.1189868 C30.6789628,15.2210948 30.7404739,16.3383805 30.6636139,17.4557812 C27.5986766,17.4251958 23.0896713,15.7185094 18.8187473,12.9250077 C14.5862533,10.1545024 11.2370724,6.74112962 9.94660897,3.89404599 C10.9452121,3.37351986 11.9975942,2.99085784 13.0806741,2.72306341 M24.295658,4.60578815 C26.9304792,6.32788223 28.7893144,8.79218885 29.8032665,11.5321087 C27.3759442,10.751377 24.7335061,9.47334564 22.1908938,7.80483345 C19.6406647,6.13655122 17.4129938,4.23841882 15.7307289,2.32510871 C18.6651427,2.16436307 21.6609521,2.88380906 24.295658,4.60578815 M3.4402819,26.4944467 C4.53109398,27.9027533 5.85237069,29.165492 7.42707772,30.1910216 C10.2153882,32.0125756 13.3571855,32.8850634 16.4681696,32.8850634 C20.009385,32.8850634 23.5044384,31.7446662 26.3850732,29.6017359 C26.4464689,29.5634467 26.5002478,29.5251575 26.5540267,29.4791645 C27.9827459,28.3924641 29.2502437,27.053147 30.295009,25.4689171 C31.6392514,23.4254467 32.4534367,21.1906453 32.7990759,18.9252585 C32.8452381,18.7875094 32.8682038,18.6344676 32.860587,18.473722 C33.0910516,16.6444641 33.0141916,14.7924397 32.6301224,13.0091749 C32.6147735,12.9250077 32.5994245,12.8485443 32.5686113,12.7719659 C31.6546003,8.77689617 29.2579758,5.10320279 25.5554236,2.68477422 C21.8529867,0.258756794 17.5205516,-0.468393031 13.4724755,0.281638328 C13.3956155,0.289227178 13.3187555,0.297045993 13.2496277,0.319927526 C11.4521882,0.679593031 9.71614434,1.34545714 8.11847163,2.28681951 C7.97248376,2.34040139 7.84184482,2.41686481 7.7265548,2.51643972 C6.45917242,3.30476028 5.28388357,4.28429686 4.24696582,5.42469408 C4.17010581,5.49356864 4.09324579,5.57014704 4.03946686,5.65431429 C3.56318867,6.2053108 3.10237481,6.77941882 2.68749231,7.3992899 C1.66592348,8.95293449 0.959180653,10.6136279 0.513715711,12.3204293 C0.459936783,12.4504746 0.421506776,12.5882237 0.413774613,12.7336767 C-0.653956384,17.4021993 0.367727848,22.3309275 3.20993267,26.1882481 C3.27132835,26.2954118 3.34818837,26.4026906 3.4402819,26.4944467" id="Fill-1" fill="#FFFFFF" mask="url(#mask-2)"></path>
            </g>
            <g id="Group" transform="translate(0.000000, 0.000000)">
                <path d="M54.714881,36.5880475 C52.4755752,36.5880475 50.6127653,35.9330786 49.1259884,34.6213022 C47.6385174,33.3107898 46.895476,31.4276966 46.895476,28.9714481 L46.895476,15.3817618 L40.5798562,15.3817618 L40.5798562,11.4493053 L46.895476,11.4493053 L46.895476,4.38058168 L51.206319,4.38058168 L51.206319,11.4493053 L58.9753934,11.4493053 L58.9753934,15.3817618 L51.206319,15.3817618 L51.206319,28.4238022 C51.206319,31.3108363 52.5422198,32.7551003 55.2159884,32.7551003 C56.5517736,32.7551003 57.7550793,32.4396811 58.8245174,31.8091873 L60.1277901,35.442886 C58.6572116,36.2065568 56.8529471,36.5880475 54.714881,36.5880475" id="Fill-4" fill="#FFFFFF"></path>
                <path d="M62.7845041,36.3389295 L62.7845041,11.4493053 L67.0953471,11.4493053 L67.0953471,15.1329885 C67.5963388,14.0713643 68.4896777,13.150386 69.7766364,12.3701686 C71.0627851,11.5907556 72.4246033,11.200532 73.8617438,11.200532 C74.595876,11.200532 75.3315124,11.2834947 76.0670331,11.4493053 L75.5158264,15.7301593 C74.9140579,15.5310258 74.1955455,15.4315165 73.3607521,15.4315165 C72.0234628,15.4315165 70.7616116,15.8547183 69.5760083,16.701122 C68.3897107,17.5471811 67.5623223,18.7172773 67.0953471,20.2103767 L67.0953471,36.3389295 L62.7845041,36.3389295 Z" id="Fill-6" fill="#FFFFFF"></path>
                <path d="M88.8982992,32.9042953 C92.4068612,32.9042953 95.0134066,31.5275966 96.7177041,28.7722457 L96.7177041,18.9659817 C95.0134066,16.2451028 92.4068612,14.8839165 88.8982992,14.8839165 C86.425043,14.8839165 84.387638,15.755255 82.783076,17.4974724 C81.1794397,19.2398047 80.3772744,21.3723606 80.3772744,23.8941059 C80.3772744,26.4165407 81.1794397,28.5487519 82.783076,30.2907394 C84.387638,32.0333016 86.425043,32.9042953 88.8982992,32.9042953 M88.5474893,36.836522 C84.8716215,36.836522 81.8476215,35.584727 79.4751421,33.0784941 C77.1025471,30.5729506 75.9168281,27.5116028 75.9168281,23.8941059 C75.9168281,20.2771835 77.1025471,17.2159506 79.4751421,14.7097177 C81.8476215,12.204404 84.8716215,10.951345 88.5474893,10.951345 C91.9888281,10.951345 94.7129273,12.0303202 96.7177041,14.1871214 L96.7177041,11.4492363 L101.027853,11.4492363 L101.027853,36.3389755 L96.7177041,36.3389755 L96.7177041,33.6009755 C94.7129273,35.7589258 91.9888281,36.836522 88.5474893,36.836522" id="Fill-8" fill="#FFFFFF"></path>
                <polygon id="Fill-10" fill="#FFFFFF" points="114.962307 36.3389295 103.383498 11.4493053 108.195332 11.4493053 116.766688 30.3156283 125.337233 11.4493053 130.149183 11.4493053 118.570836 36.3389295"></polygon>
                <path d="M134.659856,21.255845 L150.548815,21.255845 C150.214435,19.2647394 149.33741,17.6801742 147.917278,16.5019196 C146.497145,15.3244693 144.81784,14.7346525 142.880402,14.7346525 C140.908137,14.7346525 139.145988,15.3244693 137.591988,16.5019196 C136.038567,17.6801742 135.060997,19.2647394 134.659856,21.255845 M142.980253,36.836522 C139.137195,36.836522 136.013344,35.6089724 133.607426,33.1527239 C131.201509,30.6978543 129.998898,27.6109972 129.998898,23.8941059 C129.998898,20.2103078 131.217823,17.1325283 133.657757,14.660078 C136.096302,12.1883171 139.221542,10.951345 143.030583,10.951345 C146.405278,10.951345 149.236749,12.0714568 151.526385,14.3116804 C153.814864,16.5516742 154.959625,19.5967053 154.959625,23.4461991 C154.959625,23.9437457 154.942617,24.3754506 154.90941,24.7403947 L134.359261,24.7403947 C134.426021,27.0633512 135.269724,29.0051618 136.890369,30.5647922 C138.511013,32.1244227 140.557443,32.9042953 143.030583,32.9042953 C146.539261,32.9042953 149.145691,31.4608357 150.84941,28.5731121 L154.258121,30.9131898 C151.818187,34.8629972 148.05936,36.836522 142.980253,36.836522" id="Fill-12" fill="#FFFFFF"></path>
                <mask id="mask-4" fill="white">
                    <use xlink:href="#path-3"></use>
                </mask>
                <g id="Clip-15"></g>
                <polygon id="Fill-14" fill="#FFFFFF" mask="url(#mask-4)" points="159.069967 36.338941 163.38081 36.338941 163.38081 0.000114906832 159.069967 0.000114906832"></polygon>
                <path d="M172.251187,21.255845 L188.140261,21.255845 C187.805765,19.2647394 186.92874,17.6801742 185.508608,16.5019196 C184.088476,15.3244693 182.409286,14.7346525 180.471732,14.7346525 C178.499583,14.7346525 176.737319,15.3244693 175.183319,16.5019196 C173.629898,17.6801742 172.652327,19.2647394 172.251187,21.255845 M180.571583,36.836522 C176.728526,36.836522 173.604674,35.6089724 171.198757,33.1527239 C168.79284,30.6978543 167.590228,27.6109972 167.590228,23.8941059 C167.590228,20.2103078 168.809154,17.1325283 171.249088,14.660078 C173.687633,12.1883171 176.812873,10.951345 180.62203,10.951345 C183.996724,10.951345 186.828079,12.0714568 189.117831,14.3116804 C191.406195,16.5516742 192.550955,19.5967053 192.550955,23.4461991 C192.550955,23.9437457 192.534063,24.3754506 192.50074,24.7403947 L171.950707,24.7403947 C172.017352,27.0633512 172.861055,29.0051618 174.481699,30.5647922 C176.10246,32.1244227 178.148774,32.9042953 180.62203,32.9042953 C184.130592,32.9042953 186.737021,31.4608357 188.44074,28.5731121 L191.849451,30.9131898 C189.409517,34.8629972 185.650691,36.836522 180.571583,36.836522" id="Fill-16" fill="#FFFFFF" mask="url(#mask-4)"></path>
                <path d="M196.661251,36.3389295 L196.661251,11.4493053 L200.972094,11.4493053 L200.972094,15.1329885 C201.473086,14.0713643 202.366425,13.150386 203.653383,12.3701686 C204.939648,11.5907556 206.301235,11.200532 207.738375,11.200532 C208.472623,11.200532 209.20826,11.2834947 209.943896,11.4493053 L209.392458,15.7301593 C208.790805,15.5310258 208.072293,15.4315165 207.237383,15.4315165 C205.90021,15.4315165 204.638359,15.8547183 203.452755,16.701122 C202.266458,17.5471811 201.439069,18.7172773 200.972094,20.2103767 L200.972094,36.3389295 L196.661251,36.3389295 Z" id="Fill-17" fill="#FFFFFF" mask="url(#mask-4)"></path>
            </g>
        </g>
    </g>
</svg>
